Papirus/32x32/apps/gwenview.svg

<!-- Created with Inkscape (http://www.inkscape.org/) -->
<svg width="32" height="32" version="1.1" viewBox="0 0 32 32" xmlns="http://www.w3.org/2000/svg">
 <path d="m16 6c-7.73196 0-13.388866 6.027418-14 11 0.611134 4.972582 6.268038 11 14 11 7.73196 0 13.388863-6.027418 14-11-0.611137-4.972582-6.268039-11-14-11z" style="opacity:.2"/>
 <path d="M 16,5 C 8.26804,5 2.611135,11.027418 2,15.999999 2.611135,20.972581 8.268038,27 16,27 23.73196,27 29.388863,20.972581 30,15.999999 29.388863,11.027418 23.731961,5 16,5 Z" style="fill:#d35297"/>
 <circle cx="16" cy="16.999615" r="8" style="opacity:.1"/>
 <circle cx="16" cy="16" r="8" style="fill:#e4e4e4"/>
 <path d="m19 11c-1.104568 0-2 0.895432-2 2s0.895432 2 2 2 2-0.895432 2-2-0.895432-2-2-2zm-6 3-3.519531 4.5a7 7 0 0 0 6.519531 4.5 7 7 0 0 0 6.519531-4.5h-1.519531l-2.5-2.5-2.5 2z" style="opacity:.2"/>
 <path d="M 16,5 C 8.268048,5 2.611133,11.027423 2,16 2.020349,16.165569 2.046698,16.332353 2.078125,16.5 2.99055,11.632677 8.525494,6 16,6 23.474507,6 29.009447,11.632677 29.921875,16.5 29.953302,16.332353 29.979651,16.165569 30,16 29.388864,11.027423 23.731953,5 16,5 Z" style="fill:#ffffff;opacity:.1"/>
</svg>

<svg xmlns="http://www.w3.org/2000/svg" width="32" height="32" version="1.1">
 <path style="opacity:0.2" d="M 16,6 C 8.268,6 2.611,12.027 2,17 2.611,21.973 8.268,28 16,28 23.732,28 29.389,21.973 30,17 29.389,12.027 23.732,6 16,6 Z"/>
 <path style="fill:#d35297" d="M 16,5 C 8.268,5 2.611,11.027 2,16 2.611,20.973 8.268,27 16,27 23.732,27 29.389,20.973 30,16 29.389,11.027 23.732,5 16,5 Z"/>
 <circle style="opacity:0.1" cx="16" cy="17" r="8"/>
 <circle style="fill:#e4e4e4" cx="16" cy="16" r="8"/>
 <path style="fill:#b6b6b6" d="M 21,13 A 2,2 0 0 1 19,15 2,2 0 0 1 17,13 2,2 0 0 1 19,11 2,2 0 0 1 21,13 Z M 13,14 9.4805,18.5 C 10.514,21.204 13.105,22.992 16,23 18.713,22.993 21.159,21.422 22.307,19 H 21 L 18.5,16 16,18 Z"/>
 <path style="fill:#ffffff;opacity:0.1" d="M 16 5 C 8.268 5 2.611 11.027 2 16 C 2.0203 16.166 2.0467 16.332 2.0781 16.5 C 2.9904 11.632 8.5255 6 16 6 C 23.475 6 29.01 11.632 29.922 16.5 C 29.953 16.332 29.98 16.166 30 16 C 29.389 11.027 23.732 5 16 5 z"/>
</svg>
